svgs/1F625.svg

<svg xmlns="http://www.w3.org/2000/svg" xmlns:xlink="http://www.w3.org/1999/xlink" preserveAspectRatio="none" viewBox="0 0 72 72"><defs><path id="a" fill="#FCC21B" d="M127.75 93.35q0-27-8.5-47Q103.65 9.7 64 9.7 24.3 9.65 8.7 46.3.2 66.35.2 93.35q0 10.4 18.7 17.7 18.65 7.35 45.1 7.35 26.4 0 45.1-7.35 18.65-7.3 18.65-17.7z"/><path id="b" fill="#2F2F2F" d="M48.55 47.85q-.1-.05-3.45-2.45-4.25-2.3-9.2-2.3-5 0-9.25 2.3-2.2 1.2-3.45 2.45-.55.55-.5 1.3 0 .75.55 1.3t1.25.55q.8-.05 1.3-.6 1.05-.95 2.7-1.85 3.4-1.8 7.4-1.8 3.95 0 7.35 1.8 2.6 1.8 2.7 1.85.5.55 1.25.6.75 0 1.3-.55t.6-1.3q0-.75-.55-1.3z"/><path id="c" fill="#40C0E7" d="M10.65 5.5Q7.2 9 4.7 15.1q-2.4 6.05 0 10.05Q7.2 29 10.65 29q3.5 0 6-3.85 2.4-4 0-10.05-2.5-6.1-6-9.6z"/><path id="e" fill="#2F2F2F" d="M36.05 51.5q-2.35 2.9-2.3 6.9.05 4 2.45 6.85 2.45 2.8 5.8 2.75 3.35 0 5.7-2.85 2.35-2.9 2.3-6.9-.05-4-2.45-6.85-2.4-2.85-5.75-2.8-3.35.05-5.75 2.9z"/><path id="f" fill="#2F2F2F" d="M94.2 58.3q-.05-4-2.4-6.85-2.4-2.85-5.75-2.8-3.35 0-5.75 2.85t-2.4 6.85q.05 4 2.45 6.85 2.4 2.85 5.75 2.8 3.35 0 5.7-2.85 2.4-2.85 2.4-6.85z"/><path id="d" fill="none" stroke="#2F2F2F" stroke-linecap="round" stroke-linejoin="round" stroke-width="3" d="M56.45 25.1L55.3 25q-4-.35-5.5-1.85-1.15-1.4-1.65-2.45M15.9 25.1q4.9-.2 6.65-1.95 1.15-1.4 1.65-2.45"/></defs><use transform="scale(.5625)" xlink:href="#a"/><use transform="matrix(.9356 0 0 1 2.4 3.65)" xlink:href="#b"/><use transform="translate(.9 33.25) scale(1.10623)" xlink:href="#c"/><use transform="translate(-.15 2.2)" xlink:href="#d"/><use transform="matrix(.56245 0 0 .56245 0 4.5)" xlink:href="#e"/><use transform="matrix(.56245 0 0 .56245 0 4.5)" xlink:href="#f"/></svg>

<svg xmlns="http://www.w3.org/2000/svg" version="1.1" xmlns:xlink="http://www.w3.org/1999/xlink" preserveAspectRatio="none" x="0px" y="0px" width="72px" height="72px" viewBox="0 0 72 72">
<defs>
<g id="Layer0_0_FILL">
<path fill="#FCC21B" stroke="none" d="
M 127.75 93.35
Q 127.75 66.35 119.25 46.35 103.65 9.7 64 9.7 24.3 9.65 8.7 46.3 0.2 66.35 0.2 93.35 0.2 103.75 18.9 111.05 37.55 118.4 64 118.4 90.4 118.4 109.1 111.05 127.75 103.75 127.75 93.35 Z"/>
</g>

<g id="Layer0_1_FILL">
<path fill="#2F2F2F" stroke="none" d="
M 48.55 47.85
Q 48.45 47.8 45.1 45.4 40.85 43.1 35.9 43.1 30.9 43.1 26.65 45.4 24.45 46.6 23.2 47.85 22.65 48.4 22.7 49.15 22.7 49.9 23.25 50.45 23.8 51 24.5 51 25.3 50.95 25.8 50.4 26.85 49.45 28.5 48.55 31.9 46.75 35.9 46.75 39.85 46.75 43.25 48.55 45.85 50.35 45.95 50.4 46.45 50.95 47.2 51 47.95 51 48.5 50.45 49.05 49.9 49.1 49.15 49.1 48.4 48.55 47.85 Z"/>
</g>

<g id="Layer0_2_FILL">
<path fill="#40C0E7" stroke="none" d="
M 10.65 5.5
Q 7.2 9 4.7 15.1 2.3 21.15 4.7 25.15 7.2 29 10.65 29 14.15 29 16.65 25.15 19.05 21.15 16.65 15.1 14.15 9 10.65 5.5 Z"/>
</g>

<g id="Layer0_4_MEMBER_0_FILL">
<path fill="#2F2F2F" stroke="none" d="
M 36.05 51.5
Q 33.7 54.4 33.75 58.4 33.8 62.4 36.2 65.25 38.65 68.05 42 68 45.35 68 47.7 65.15 50.05 62.25 50 58.25 49.95 54.25 47.55 51.4 45.15 48.55 41.8 48.6 38.45 48.65 36.05 51.5 Z"/>
</g>

<g id="Layer0_4_MEMBER_1_FILL">
<path fill="#2F2F2F" stroke="none" d="
M 94.2 58.3
Q 94.15 54.3 91.8 51.45 89.4 48.6 86.05 48.65 82.7 48.65 80.3 51.5 77.9 54.35 77.9 58.35 77.95 62.35 80.35 65.2 82.75 68.05 86.1 68 89.45 68 91.8 65.15 94.2 62.3 94.2 58.3 Z"/>
</g>

<path id="Layer0_3_1_STROKES" stroke="#2F2F2F" stroke-width="3" stroke-linejoin="round" stroke-linecap="round" fill="none" d="
M 56.45 25.1
L 55.3 25
Q 51.3 24.65 49.8 23.15 48.65 21.75 48.15 20.7
M 15.9 25.1
Q 20.8 24.9 22.55 23.15 23.7 21.75 24.2 20.7"/>
</defs>

<g id="Layer_1">
<g transform="matrix( 0.5625, 0, 0, 0.5625, 0,0) ">
<use xlink:href="#Layer0_0_FILL"/>
</g>

<g transform="matrix( 0.93560791015625, 0, 0, 1, 2.4,3.65) ">
<use xlink:href="#Layer0_1_FILL"/>
</g>

<g transform="matrix( 1.106231689453125, 0, 0, 1.106231689453125, 0.9,33.25) ">
<use xlink:href="#Layer0_2_FILL"/>
</g>

<g transform="matrix( 1, 0, 0, 1, -0.15,2.2) ">
<use xlink:href="#Layer0_3_1_STROKES"/>
</g>

<g transform="matrix( 0.5624542236328125, 0, 0, 0.5624542236328125, 0,4.5) ">
<use xlink:href="#Layer0_4_MEMBER_0_FILL"/>
</g>

<g transform="matrix( 0.5624542236328125, 0, 0, 0.5624542236328125, 0,4.5) ">
<use xlink:href="#Layer0_4_MEMBER_1_FILL"/>
</g>
</g>
</svg>
